build/system/EmojiNeutalOutline.svg

<svg xmlns="http://www.w3.org/2000/svg" fill="none" viewBox="0 0 24 24" focusable="false"><path d="M0 0H24V24H0z"/><path fill="#74767B" fill-rule="evenodd" d="M12 21C16.9706 21 21 16.9706 21 12C21 7.02944 16.9706 3 12 3C7.02944 3 3 7.02944 3 12C3 16.9706 7.02944 21 12 21ZM12 19.7C16.2526 19.7 19.7 16.2526 19.7 12C19.7 7.74741 16.2526 4.3 12 4.3C7.74741 4.3 4.3 7.74741 4.3 12C4.3 16.2526 7.74741 19.7 12 19.7ZM10.5 10.1195C10.5 9.70533 10.1642 9.36954 9.75 9.36954C9.33579 9.36954 9 9.70533 9 10.1195C9 10.5338 9.33579 10.8695 9.75 10.8695C10.1642 10.8695 10.5 10.5338 10.5 10.1195ZM15 10.1195C15 9.70533 14.6642 9.36954 14.25 9.36954C13.8358 9.36954 13.5 9.70533 13.5 10.1195C13.5 10.5338 13.8358 10.8695 14.25 10.8695C14.6642 10.8695 15 10.5338 15 10.1195ZM9.21396 14.6262C8.85498 14.6262 8.56396 14.3352 8.56396 13.9762C8.56396 13.6173 8.85498 13.3262 9.21396 13.3262L14.7872 13.3262C15.1462 13.3262 15.4372 13.6173 15.4372 13.9762C15.4372 14.3352 15.1462 14.6262 14.7872 14.6262L9.21396 14.6262Z"/></svg>

<svg xmlns="http://www.w3.org/2000/svg" fill="none" viewBox="0 0 24 24" focusable="false"><path fill="#74767B" fill-rule="evenodd" d="M12 21a9 9 0 0 0 9-9c0-4.98-4.03-9-9-9-4.98 0-9 4.02-9 9 0 4.97 4.02 9 9 9m0-1.3c4.25 0 7.7-3.45 7.7-7.7 0-4.26-3.45-7.7-7.7-7.7a7.7 7.7 0 1 0 0 15.4m-1.5-9.59a.749.749 0 1 0-1.5 0c0 .42.33.75.75.75.41 0 .75-.33.75-.75m4.5 0a.749.749 0 1 0-1.5 0c0 .42.33.75.75.75.41 0 .75-.33.75-.75m-5.79 4.51c-.36 0-.65-.29-.65-.65s.29-.65.65-.65h5.57c.36 0 .65.29.65.65s-.29.65-.65.65z"/></svg>
